X:1
T:O Lord, thou hast me tried and known
T:Joseph Key
T:Text: Thomas Norton, on Ps. 139
T:This edition by Edmund Gooch released into the public domain, April 2012.
T:O Lord, thou hast me tried and known
T:PSALM CXXXIX
C:Joseph Key
Z:Text: Thomas Norton, on Ps. 139
%%score [ 1 2 3 4 ]
L:1/8
M:3/2
K:Eb
V:1 treble nm="Soprano" snm="S."
V:2 treble nm="Alto" snm="A."
V:3 treble-8 transpose=-12 nm="Tenor" snm="T."
V:4 bass nm="Bass" snm="B."
V:1
 (G3 A) | B8 (c3 d/e/) | d8 B4 | (TA6 G2) F4 | G8 G4 | (TG6 A2) (B3 A) | G8 F4 | F8 G4 | G8 G4 | %9
w: Yea, _|let me _ _|take the|morn- * ing|wings, And|let _ me _|go and|dwell E’en|in the|
w: O _|Lord, thou _ _|hast me|tried _ and|known, My|sit- * ting _|down dost|know; My|ris- ing|
w: From _|thy all- * *|see- ing|spi- * rit|then, Lord,|whi- * ther _|shall I|go? Or|whi- ther|
 A8 G4 | F8 (G3 A) | B8 B4 | B8 c4 | c4 (TB6 A2) | G8 |] %15
w: ve- ry|ut- most _|parts, Where|flow- ing|seas do _|swell:|
w: up and|thoughts far _|off Thou|un- der-|standst al- *|so.|
w: shall I|fly a- *|way From|thy pre-|sence al- *|so?|
V:2
 E4 | E8 E4 | F8 E4 | E8 TD4 | E8 E4 | (E3 D C4) D4 | (TE6 D2) C4 | D8 E4 | E8 E4 | E8 (E2 D2) | %10
w: Yea,|let me|take the|morn- ing|wings, And|let _ _ me|go _ and|dwell E’en|in the|ve- ry _|
w: O|Lord, thou|hast me|tried and|known, My|sit- * * ting|down _ dost|know; My|ris- ing|up and _|
w: From|thy all-|see- ing|spi- rit|then, Lord,|whi- * * ther|shall _ I|go? Or|whi- ther|shall I _|
 (TC6 D2) E4 | D8 D4 | E8 E4 | E4 (E4 TD4) | E8 |] %15
w: ut- * most|parts, Where|flow- ing|seas do _|swell:|
w: thoughts _ far|off Thou|un- der-|standst al- *|so.|
w: fly _ a-|way From|thy pre-|sence al- *|so?|
V:3
 (E3 F) | G8 (G3 A) | B8 (G3 c) | Tc8 B4 | B8 B4 | (c3 d e4) d4 | (c4 B4) T=A4 | B8 (B3 e) | %8
w: Yea, _|let me _|take the _|morn- ing|wings, And|let _ _ me|go _ and|dwell E’en _|
w: O _|Lord, thou _|hast me _|tried and|known, My|sit- * * ting|down _ dost|know; My _|
w: From _|thy all- *|see- ing _|spi- rit|then, Lord,|whi- * * ther|shall _ I|go? Or _|
 e8 (B3 c/d/) | c8 (c2 B2) | TA8 G4 | F8 (B3 A) | (TG6 F2) E4 | (A2 G2) TF8 | E8 |] %15
w: in the _ _|ve- ry _|ut- most|parts, Where _|flow- * ing|seas _ do|swell:|
w: ris- ing _ _|up and _|thoughts far|off Thou _|un- * der-|standst _ al-|so.|
w: whi- ther _ _|shall I _|fly a-|way From _|thy _ pre-|sence _ al-|so?|
V:4
 E,4 | E,8 C,4 | B,,8 E,4 | A,,8 B,,4 | [E,,E,]8 (E,3 D,) | C,8 B,,4 | E,8 F,4 | %7
w: Yea,|let me|take the|morn- ing|wings, And _|let me|go and|
w: O|Lord, thou|hast me|tried and|known, My _|sit- ting|down dost|
w: From|thy all-|see- ing|spi- rit|then, Lord, _|whi- ther|shall I|
"^Notes: The alto part is printed in the source in the treble clef, an octave above sounding pitch. The first verse only ofthe text is given in the source: three subsequent verses have been underlaid editorially. The following notes areprinted as small grace notes in the source, and have been written out editorially: bar 1, soprano D and Eb; bar 2,tenor C; bar 7, tenor Eb; bar 8, tenor C and D; bar 13, beat 2, alto Eb." B,,8 E,4 | %8
w: dwell E’en|
w: know; My|
w: go? Or|
 E,8 (E,3 D,) | (C,6 D,2) E,4 | F,8 E,4 | B,,8 B,,4 | (E,6 D,2) (C,2 B,,2) | A,,4 B,,8 | %14
w: in the _|ve- * ry|ut- most|parts, Where|flow- * ing _|seas do|
w: ris- ing _|up _ and|thoughts far|off Thou|un- * der- *|standst al-|
w: whi- ther _|shall _ I|fly a-|way From|thy _ pre- *|sence al-|
 [E,,E,]8 |] %15
w: swell:|
w: so.|
w: so?|

